dist/img/icons/youtube-orange.svg

<svg width="22" height="16" viewBox="0 0 22 16" fill="none" xmlns="http://www.w3.org/2000/svg">
<path fill-rule="evenodd" clip-rule="evenodd" d="M19.5875 0.4625C20.5375 0.725 21.2875 1.475 21.5375 2.425C22 4.15 22 7.75 22 7.75C22 7.75 22 11.35 21.55 13.075C21.2875 14.0375 20.55 14.7875 19.6 15.0375C17.875 15.5 11 15.5 11 15.5C11 15.5 4.125 15.5 2.4125 15.0375C1.4625 14.775 0.7125 14.025 0.4625 13.075C0 11.35 0 7.75 0 7.75C0 7.75 0 4.15 0.45 2.425C0.7125 1.4625 1.45 0.7125 2.4 0.4625C4.125 0 11 0 11 0C11 0 17.875 0 19.5875 0.4625ZM14.5 7.75006L8.74998 11.0251V4.47506L14.5 7.75006Z" fill="#FF5500"/>
</svg>

<svg width="22" height="16" fill="none" xmlns="http://www.w3.org/2000/svg"><path fill-rule="evenodd" clip-rule="evenodd" d="M19.587.463c.95.262 1.7 1.012 1.95 1.962C22 4.15 22 7.75 22 7.75s0 3.6-.45 5.325c-.262.963-1 1.713-1.95 1.963-1.725.462-8.6.462-8.6.462s-6.875 0-8.588-.463a2.784 2.784 0 01-1.95-1.962C0 11.35 0 7.75 0 7.75s0-3.6.45-5.325C.713 1.463 1.45.713 2.4.463 4.125 0 11 0 11 0s6.875 0 8.587.463zM14.5 7.75l-5.75 3.275v-6.55L14.5 7.75z" fill="#F50"/></svg>
